X: 129014
M: 6/8
L: 1/8
K: D
[|\
vF2vA uG2uB | ABc d3 | F2A G2B | AFD EFG |\
faf ud2uf | gbg ue2ug | faf d2f | ecA A2g |\
faf def | gbg efg | fed g2f | edc d2 |]


